X: 12787
T: Fear A Bhios Fada Gun Phosadh
R: jig
M: 6/8
K: Eminor
|:EEE G2A|BAG F2E|DDD F2G|ABA AGF|
EEE G2A|BAG FGA|BBB AGF|E3 E3:|
|:EEE e3|edB d3|DDD F2G|ABA AGF|
[1 EEE e3|edB d3|BBB AGF|E3 E3:|
[2 EEE G2A|BAG FGA|BBB AGF|E3 E3||

